img/dec/bottom-left.svg

<svg width="52" height="52" fill="none" xmlns="http://www.w3.org/2000/svg">
  <path d="M4 14a2 2 0 1 0-4 0 2 2 0 0 0 4 0ZM4 2a2 2 0 1 0-4 0 2 2 0 0 0 4 0Zm12 36a2 2 0 1 0-4 0 2 2 0 0 0 4 0Zm0-12a2 2 0 1 0-4 0 2 2 0 0 0 4 0Zm0-12a2 2 0 1 0-4 0 2 2 0 0 0 4 0Zm0-12a2 2 0 1 0-4 0 2 2 0 0 0 4 0Zm12 36a2 2 0 1 0-4 0 2 2 0 0 0 4 0Zm0-12a2 2 0 1 0-4 0 2 2 0 0 0 4 0Zm0-12a2 2 0 1 0-4 0 2 2 0 0 0 4 0Zm0-12a2 2 0 1 0-4 0 2 2 0 0 0 4 0Zm12 48a2 2 0 1 0-4 0 2 2 0 0 0 4 0Zm0-12a2 2 0 1 0-4 0 2 2 0 0 0 4 0Zm0-12a2 2 0 1 0-4 0 2 2 0 0 0 4 0Zm0-12a2 2 0 1 0-4 0 2 2 0 0 0 4 0Zm0-12a2 2 0 1 0-4 0 2 2 0 0 0 4 0Zm12 48a2 2 0 1 0-4 0 2 2 0 0 0 4 0Zm0-12a2 2 0 1 0-4 0 2 2 0 0 0 4 0Zm0-12a2 2 0 1 0-4 0 2 2 0 0 0 4 0Zm0-12a2 2 0 1 0-4 0 2 2 0 0 0 4 0Zm0-12a2 2 0 1 0-4 0 2 2 0 0 0 4 0Z" fill="rgba(127,127,127,.3)"/>
</svg>

<svg width="52" height="52" fill="none" xmlns="http://www.w3.org/2000/svg"><path d="M4 14a2 2 0 1 0-4 0 2 2 0 0 0 4 0Z" fill="gray" fill-opacity=".3"/><path d="M4 14a2 2 0 1 0-4 0 2 2 0 0 0 4 0ZM4 2a2 2 0 1 0-4 0 2 2 0 0 0 4 0ZM16 26a2 2 0 1 0-4 0 2 2 0 0 0 4 0ZM16 38a2 2 0 1 0-4 0 2 2 0 0 0 4 0ZM16 14a2 2 0 1 0-4 0 2 2 0 0 0 4 0Z" fill="gray" fill-opacity=".3"/><path d="M16 14a2 2 0 1 0-4 0 2 2 0 0 0 4 0ZM16 2a2 2 0 1 0-4 0 2 2 0 0 0 4 0ZM40 50a2 2 0 1 0-4 0 2 2 0 0 0 4 0ZM40 26a2 2 0 1 0-4 0 2 2 0 0 0 4 0ZM40 38a2 2 0 1 0-4 0 2 2 0 0 0 4 0ZM40 14a2 2 0 1 0-4 0 2 2 0 0 0 4 0Z" fill="gray" fill-opacity=".3"/><path d="M40 14a2 2 0 1 0-4 0 2 2 0 0 0 4 0ZM40 2a2 2 0 1 0-4 0 2 2 0 0 0 4 0ZM28 26a2 2 0 1 0-4 0 2 2 0 0 0 4 0ZM28 38a2 2 0 1 0-4 0 2 2 0 0 0 4 0ZM28 14a2 2 0 1 0-4 0 2 2 0 0 0 4 0Z" fill="gray" fill-opacity=".3"/><path d="M28 14a2 2 0 1 0-4 0 2 2 0 0 0 4 0ZM28 2a2 2 0 1 0-4 0 2 2 0 0 0 4 0ZM52 50a2 2 0 1 0-4 0 2 2 0 0 0 4 0ZM52 26a2 2 0 1 0-4 0 2 2 0 0 0 4 0ZM52 38a2 2 0 1 0-4 0 2 2 0 0 0 4 0ZM52 14a2 2 0 1 0-4 0 2 2 0 0 0 4 0Z" fill="gray" fill-opacity=".3"/><path d="M52 14a2 2 0 1 0-4 0 2 2 0 0 0 4 0ZM52 2a2 2 0 1 0-4 0 2 2 0 0 0 4 0Z" fill="gray" fill-opacity=".3"/></svg>
